!!!SOCIAL_FUNCTION:	potlatch songs
!!!PDT:	1939
!!!OTL: No_19_"Mine_is_a_Proud_Village".krn
!!!LANG: Non-Tone
!!!LING_GROUP: Wakashan
!!!REG: Pacific Northwest
**kern
*staff1
=1-
*clefF4
*k[b-e-]
*M3/4
2r
8r
{16r
16c\
=2
8.e-\L
16e-\Jk
8.e-\L
16e-\Jk
12f\L
12e-\
12d\J
=3
8.e-\L
16e-\Jk
12e-\L
12d\
12c\J
12d\L
12c\
12B-\J
=4||
*M2/4
8.B-\L
16B-\Jk
8B-\L
16c\L
16d\JJ
=5||
*M3/4
4c\
8c\}
8r
{16c\LL
16d\
16d\
16d\JJ
=6||
*M2/4
4c\
8c\}
8r
=7
8.d\L
{16d\Jk
8.d\L
16B-\Jk
=8||
*M3/4
8.B-\L
16B-\Jk
8B-\}
8r
{16d\LL
16d\
16d\
16d\JJ
=9
4c\
8c\}
8r
{16d\LL
16d\
16d\
16d\JJ
=10||
*M2/4
4c\
8c\
8r
=11
8.d\L
16c\Jk
8.d\L
16B-\Jk
=12||
*M3/4
4c\
4c\
16c\}
16r
{8c\
=13
12c\L
12B-\
12F\J
4c\
8c\}
8r
==
*-
